img/svgicons/view.svg

<svg width="24" height="24" viewBox="0 0 24 24" fill="none" xmlns="http://www.w3.org/2000/svg">
<path d="M23.8475 12.4668C23.6331 12.7601 18.5245 19.6483 11.9999 19.6483C5.47529 19.6483 0.36647 12.7601 0.152297 12.4671C-0.0507657 12.1888 -0.0507657 11.8114 0.152297 11.5332C0.36647 11.2399 5.47529 4.35165 11.9999 4.35165C18.5245 4.35165 23.6331 11.2399 23.8475 11.533C24.0508 11.8112 24.0508 12.1888 23.8475 12.4668ZM11.9999 5.93406C7.19383 5.93406 3.03127 10.5059 1.79907 12.0005C3.02968 13.4965 7.18352 18.0659 11.9999 18.0659C16.8057 18.0659 20.968 13.4949 22.2007 11.9995C20.9701 10.5036 16.8163 5.93406 11.9999 5.93406Z" fill="#8A8A8A"/>
<path d="M11.9992 16.7473C9.38163 16.7473 7.25195 14.6176 7.25195 12C7.25195 9.38238 9.38163 7.2527 11.9992 7.2527C14.6168 7.2527 16.7465 9.38238 16.7465 12C16.7465 14.6176 14.6168 16.7473 11.9992 16.7473ZM11.9992 8.83516C10.2541 8.83516 8.83441 10.2549 8.83441 12C8.83441 13.7451 10.2541 15.1648 11.9992 15.1648C13.7443 15.1648 15.164 13.7451 15.164 12C15.164 10.2549 13.7444 8.83516 11.9992 8.83516Z" fill="#8A8A8A"/>
</svg>

<svg width="24" height="24" fill="none" xmlns="http://www.w3.org/2000/svg"><path d="M23.848 12.467c-.215.293-5.323 7.181-11.848 7.181S.366 12.76.152 12.468a.792.792 0 0 1 0-.935C.366 11.24 5.475 4.352 12 4.352c6.524 0 11.633 6.888 11.848 7.181a.791.791 0 0 1 0 .934ZM12 5.934c-4.806 0-8.969 4.572-10.2 6.067 1.23 1.495 5.384 6.065 10.2 6.065 4.806 0 8.968-4.571 10.2-6.066-1.23-1.496-5.384-6.066-10.2-6.066Z" fill="#8A8A8A"/><path d="M12 16.747A4.753 4.753 0 0 1 7.251 12a4.753 4.753 0 0 1 4.747-4.747A4.753 4.753 0 0 1 16.747 12a4.753 4.753 0 0 1-4.748 4.747Zm0-7.912A3.168 3.168 0 0 0 8.833 12 3.168 3.168 0 0 0 12 15.165 3.168 3.168 0 0 0 15.164 12a3.168 3.168 0 0 0-3.165-3.165Z" fill="#8A8A8A"/></svg>
